X:479
T: "Vergebliches Staendchen"
N: Z1159
O: Europa, Mitteleuropa, Deutschland, Niederrhein
R: Liebes -, Kilt -  Lied
M: 3/4
L: 1/16
K: C
G,3G, | C6G,2E,2G,2 | C4z4
C3C | D6E2F2D2 | C8z4 |
D4D4B,2G,2 | C6D2E4 |
D4D4B,2G,2 | C6D2E4 |
F2D2E4D4 | C8

@@@ Tune index: 10237
